X:1
T:Salve Domine, 76.76 D
T:Salve Domine, 76.76 D
T:Lawrence White Watson, 1909
T:Public Domain Courtesy of the Cyber Hymnal™
C:Lawrence White Watson, 1909
Z:Public Domain
Z:Courtesy of the Cyber Hymnal™
%%score ( 1 2 ) 3
L:1/8
Q:1/4=110
M:4/4
K:G
V:1 treble 
V:2 treble 
V:3 bass 
V:1
 [DB]2 [B,D][B,D] [B,E]2 [DF]2 | [B,G]4 [B,D]4 | [B,G]2 [CG][CE] [EG]2 [^DA]2 | [DB]8 | %4
 [Fd]2 [FA][^E^G] [FA]2 [FB]2 | [DA]4 [EG]2 [DF]2 | [DE]2 [DF]2 [DG]2 [^CA]2 | [DA]6 D2 | %8
 [Ec]3 [Ec] [DB]2 [DA]2 | [DB]4 [DG]2 [DG]2 | [Ee]3 [Ed] [Ec]2 [EB]2 | [Ec]6 [Ec]2 | %12
 [FA]3 [FA] [FB]2 [Fc]2 | [Gd]4 [EG]2 [EG]2 | [Ec]2 E2 [FB]3 [FA] | [DG]8 |] %16
V:2
 x8 | x8 | x8 | x8 | x8 | x8 | x8 | x6 D2 | x8 | x8 | x8 | x8 | x8 | x8 | x2 E2 x4 | x8 |] %16
V:3
 [G,B,]2 [D,G,][D,G,] [D,G,]2 [D,B,]2 | [G,,D,]4 [G,,D,]4 | %2
 [G,,=F,]2 [G,,E,][G,,G,] [G,C]2 [G,C]2 | [G,B,]8 | [D,A,]2 [D,C][D,B,] [D,C]2 [D,D]2 | %5
 [D,B,]4 [E,B,]2 [F,A,]2 | [G,B,]2 [F,A,]2 [E,G,]2 G,2 | [D,F,]6 [D,D]2 | %8
 [D,F,]3 [D,F,] [E,G,]2 [F,C]2 | ([G,B,]2 D,2) [G,B,]2 [=F,B,]2 | [E,^G,]3 [E,G,] [F,A,]2 [G,D]2 | %11
 ([A,C]2 E,2 A,2) [A,C]2 | [CD]3 [CD] [CD]2 [CD]2 | [B,D]4 [G,C]2 [B,D]2 | %14
 [A,C]2 [A,C]2 [D,D]3 [D,C] | [G,B,]8 |] %16

